X: 1
T: On the Banks of the Helicon
C: Henry IV Plantagenet
S: M.G. Mudrey, Jr. <mgmudrey@wisc.edu> strathspey 2003-7-3 (Helicon.jpg)
M: C
L: 1/4
K: G
"A"|: G | "G"Gd "D7"dc | "G"B>A Gd | "C"e/f/g fe | "D7"d>c "G"BG | "C"cB "D7"A/G/A | "G"G2 G :|
"B"|: "G7"G | "C"c>B c"/B"d | "Am"ed ce/=f/ | "D"ed "A7"d^c | "D"d3 \
"C":: "D7"d | "G"B>A "C"Gc | "G"B>A "C"Gc | BG "D7"GF | "G"G3 :|
